symbols/web/delete_forever/materialsymbolsrounded/delete_forever_wght700grad200fill1_20px.svg

<svg xmlns="http://www.w3.org/2000/svg" height="20" width="20"><path d="m10 12.188 1.229 1.208q.375.375.865.375.489 0 .844-.375.374-.375.374-.875t-.374-.854l-1.23-1.209 1.25-1.229q.375-.396.365-.885-.011-.49-.385-.823-.355-.354-.855-.354t-.833.354L10 8.729 8.771 7.521q-.333-.375-.844-.375-.51 0-.865.375-.354.354-.354.844 0 .489.354.864l1.209 1.229-1.229 1.23q-.354.354-.344.854.01.5.364.854.376.354.876.354t.833-.354Zm-4.375 6.27q-1.208 0-2.063-.843-.854-.844-.854-2.073V5.312q-.583 0-1.01-.427-.427-.427-.427-1.031 0-.583.427-1.021.427-.437 1.01-.437h4.334q0-.563.437-.99Q7.917.979 8.5.979h3q.583 0 1.021.427.437.427.437.99h4.313q.604 0 1.031.437.427.438.427 1.021 0 .604-.427 1.031-.427.427-1.031.427v10.23q0 1.229-.844 2.073-.844.843-2.073.843Z"/></svg>

<svg xmlns="http://www.w3.org/2000/svg" height="20" width="20"><path d="M10 12.188 11.229 13.396Q11.604 13.771 12.094 13.771Q12.583 13.771 12.938 13.396Q13.312 13.021 13.312 12.521Q13.312 12.021 12.938 11.667L11.708 10.458L12.958 9.229Q13.333 8.833 13.323 8.344Q13.312 7.854 12.938 7.521Q12.583 7.167 12.083 7.167Q11.583 7.167 11.25 7.521L10 8.729L8.771 7.521Q8.438 7.146 7.927 7.146Q7.417 7.146 7.062 7.521Q6.708 7.875 6.708 8.365Q6.708 8.854 7.062 9.229L8.271 10.458L7.042 11.688Q6.688 12.042 6.698 12.542Q6.708 13.042 7.062 13.396Q7.438 13.75 7.938 13.75Q8.438 13.75 8.771 13.396ZM5.625 18.458Q4.417 18.458 3.562 17.615Q2.708 16.771 2.708 15.542V5.312Q2.125 5.312 1.698 4.885Q1.271 4.458 1.271 3.854Q1.271 3.271 1.698 2.833Q2.125 2.396 2.708 2.396H7.042Q7.042 1.833 7.479 1.406Q7.917 0.979 8.5 0.979H11.5Q12.083 0.979 12.521 1.406Q12.958 1.833 12.958 2.396H17.271Q17.875 2.396 18.302 2.833Q18.729 3.271 18.729 3.854Q18.729 4.458 18.302 4.885Q17.875 5.312 17.271 5.312V15.542Q17.271 16.771 16.427 17.615Q15.583 18.458 14.354 18.458Z"/></svg>
